public/assets/img/casestudies/wellmee/Step5.svg

<svg fill="none" height="49" viewBox="0 0 48 49" width="48" xmlns="http://www.w3.org/2000/svg"><path d="m32 4.77765h-16c-1.5913 0-3.1174.63214-4.2426 1.75736-1.1253 1.12522-1.7574 2.65134-1.7574 4.24259v28c0 1.5913.6321 3.1175 1.7574 4.2427 1.1252 1.1252 2.6513 1.7573 4.2426 1.7573h16c1.5913 0 3.1174-.6321 4.2426-1.7573 1.1253-1.1252 1.7574-2.6514 1.7574-4.2427v-28c0-1.59125-.6321-3.11737-1.7574-4.24259-1.1252-1.12522-2.6513-1.75736-4.2426-1.75736zm2 33.99995c0 .5305-.2107 1.0392-.5858 1.4143-.3751.375-.8838.5857-1.4142.5857h-16c-.5304 0-1.0391-.2107-1.4142-.5857-.3751-.3751-.5858-.8838-.5858-1.4143v-2h20zm-10-10c1.2379.0035 2.4444.3898 3.4541 1.1059 1.0098.7161 1.7733 1.727 2.1859 2.8941h-11.28c.4126-1.1671 1.1761-2.178 2.1859-2.8941 1.0097-.7161 2.2162-1.1024 3.4541-1.1059zm-2-6c0-.3955.1173-.7822.3371-1.1111.2197-.3289.5321-.5852.8975-.7366.3655-.1514.7676-.191 1.1556-.1138.3879.0771.7443.2676 1.024.5473s.4702.6361.5474 1.0241c.0771.3879.0375.7901-.1138 1.1555-.1514.3655-.4078.6778-.7367.8976s-.7155.337-1.1111.337c-.5304 0-1.0391-.2107-1.4142-.5857-.3751-.3751-.5858-.8838-.5858-1.4143zm12 10h-.2c-.2904-1.3864-.8721-2.6953-1.7065-3.84s-1.9025-2.0991-3.1335-2.8c.6745-.9909 1.0368-2.1612 1.04-3.36 0-1.5913-.6321-3.1174-1.7574-4.2426-1.1252-1.1252-2.6513-1.7574-4.2426-1.7574s-3.1174.6322-4.2426 1.7574c-1.1253 1.1252-1.7574 2.6513-1.7574 4.2426.0032 1.1988.3655 2.3691 1.04 3.36-1.231.7009-2.2991 1.6553-3.1335 2.8s-1.4161 2.4536-1.7065 3.84h-.2v-22c0-.5304.2107-1.03909.5858-1.41416.3751-.37508.8838-.58579 1.4142-.58579h16c.5304 0 1.0391.21071 1.4142.58579.3751.37507.5858.88376.5858 1.41416zm-10-22c-.3956 0-.7822.1173-1.1111.3371s-.5853.5321-.7367.8976c-.1513.3654-.1909.7676-.1138 1.1555.0772.388.2677.7444.5474 1.0241s.6361.4701 1.024.5473c.388.0772.7901.0376 1.1556-.1138.3654-.1514.6778-.4077.8975-.7366.2198-.3289.3371-.7156.3371-1.1112 0-.5304-.2107-1.0391-.5858-1.4142-.3751-.375-.8838-.5858-1.4142-.5858z" fill="#00ceba"/></svg>

<svg width="48" height="49" viewBox="0 0 48 49" fill="none" xmlns="http://www.w3.org/2000/svg">
<path d="M32 4.77765H16C14.4087 4.77765 12.8826 5.40979 11.7574 6.53501C10.6321 7.66023 10 9.18635 10 10.7776V38.7776C10 40.3689 10.6321 41.8951 11.7574 43.0203C12.8826 44.1455 14.4087 44.7776 16 44.7776H32C33.5913 44.7776 35.1174 44.1455 36.2426 43.0203C37.3679 41.8951 38 40.3689 38 38.7776V10.7776C38 9.18635 37.3679 7.66023 36.2426 6.53501C35.1174 5.40979 33.5913 4.77765 32 4.77765ZM34 38.7776C34 39.3081 33.7893 39.8168 33.4142 40.1919C33.0391 40.5669 32.5304 40.7776 32 40.7776H16C15.4696 40.7776 14.9609 40.5669 14.5858 40.1919C14.2107 39.8168 14 39.3081 14 38.7776V36.7776H34V38.7776ZM24 28.7776C25.2379 28.7811 26.4444 29.1674 27.4541 29.8835C28.4639 30.5996 29.2274 31.6105 29.64 32.7776H18.36C18.7726 31.6105 19.5361 30.5996 20.5459 29.8835C21.5556 29.1674 22.7621 28.7811 24 28.7776ZM22 22.7776C22 22.3821 22.1173 21.9954 22.3371 21.6665C22.5568 21.3376 22.8692 21.0813 23.2346 20.9299C23.6001 20.7785 24.0022 20.7389 24.3902 20.8161C24.7781 20.8932 25.1345 21.0837 25.4142 21.3634C25.6939 21.6431 25.8844 21.9995 25.9616 22.3875C26.0387 22.7754 25.9991 23.1776 25.8478 23.543C25.6964 23.9085 25.44 24.2208 25.1111 24.4406C24.7822 24.6604 24.3956 24.7776 24 24.7776C23.4696 24.7776 22.9609 24.5669 22.5858 24.1919C22.2107 23.8168 22 23.3081 22 22.7776ZM34 32.7776H33.8C33.5096 31.3912 32.9279 30.0823 32.0935 28.9376C31.2591 27.7929 30.191 26.8385 28.96 26.1376C29.6345 25.1467 29.9968 23.9764 30 22.7776C30 21.1863 29.3679 19.6602 28.2426 18.535C27.1174 17.4098 25.5913 16.7776 24 16.7776C22.4087 16.7776 20.8826 17.4098 19.7574 18.535C18.6321 19.6602 18 21.1863 18 22.7776C18.0032 23.9764 18.3655 25.1467 19.04 26.1376C17.809 26.8385 16.7409 27.7929 15.9065 28.9376C15.0721 30.0823 14.4904 31.3912 14.2 32.7776H14V10.7776C14 10.2472 14.2107 9.73851 14.5858 9.36344C14.9609 8.98836 15.4696 8.77765 16 8.77765H32C32.5304 8.77765 33.0391 8.98836 33.4142 9.36344C33.7893 9.73851 34 10.2472 34 10.7776V32.7776ZM24 10.7776C23.6044 10.7776 23.2178 10.8949 22.8889 11.1147C22.56 11.3345 22.3036 11.6468 22.1522 12.0123C22.0009 12.3777 21.9613 12.7799 22.0384 13.1678C22.1156 13.5558 22.3061 13.9122 22.5858 14.1919C22.8655 14.4716 23.2219 14.662 23.6098 14.7392C23.9978 14.8164 24.3999 14.7768 24.7654 14.6254C25.1308 14.474 25.4432 14.2177 25.6629 13.8888C25.8827 13.5599 26 13.1732 26 12.7776C26 12.2472 25.7893 11.7385 25.4142 11.3634C25.0391 10.9884 24.5304 10.7776 24 10.7776Z" fill="#00CEBA"/>
</svg>
